icons/svg/swap-vertical.svg

﻿<?xml version="1.0" encoding="utf-8"?>
<!DOCTYPE svg PUBLIC "-//W3C//DTD SVG 1.1//EN" "http://www.w3.org/Graphics/SVG/1.1/DTD/svg11.dtd">
<svg xmlns="http://www.w3.org/2000/svg" xmlns:xlink="http://www.w3.org/1999/xlink" version="1.1" baseProfile="full" width="24" height="24" viewBox="0 0 24.00 24.00" enable-background="new 0 0 24.00 24.00" xml:space="preserve">
	<path fill="#000000" fill-opacity="1" stroke-width="0.2" stroke-linejoin="round" d="M 8.99939,2.99805L 4.99939,6.98804L 7.99939,6.98804L 7.99939,13.998L 9.99939,13.998L 9.99939,6.98804L 12.9994,6.98804M 15.9994,17.0081L 15.9994,9.99805L 13.9994,9.99805L 13.9994,17.0081L 10.9994,17.0081L 14.9994,20.998L 18.9994,17.0081L 15.9994,17.0081 Z "/>
</svg>

<svg xmlns="http://www.w3.org/2000/svg" version="1.1" baseProfile="full" width="24" height="24" viewBox="0 0 24.00 24.00" xml:space="preserve"><path fill="#000" fill-opacity="1" stroke-width=".2" stroke-linejoin="round" d="M9 2.998l-4 3.99h3v7.01h2v-7.01h3m3 10.02v-7.01h-2v7.01h-3l4 3.99 4-3.99h-3z"/></svg>
